icons/mastodon-line.svg

<svg xmlns="http://www.w3.org/2000/svg" width="24" height="24" fill="none"><g clip-path="url(#a)"><g><path fill="#121212" d="M3.01799 12.008C2.98599 10.748 3.00599 9.56 3.00599 8.566C3.00599 4.228 5.84899 2.956 5.84899 2.956C7.28199 2.298 9.74099 2.021 12.299 2H12.361C14.918 2.02 17.379 2.298 18.812 2.956C18.812 2.956 21.655 4.228 21.655 8.566C21.655 8.566 21.691 11.767 21.259 13.99C20.984 15.4 18.802 16.945 16.296 17.244C14.99 17.4 13.703 17.544 12.331 17.48C10.088 17.377 8.31699 16.945 8.31699 16.945C8.31699 17.163 8.33099 17.371 8.35699 17.565C8.44099 18.198 8.65599 18.66 8.96199 19C9.72799 19.85 11.068 19.93 12.357 19.974C14.177 20.037 15.797 19.525 15.797 19.525L15.873 21.171C15.873 21.171 14.599 21.855 12.331 21.981C11.081 22.049 9.52799 21.949 7.71899 21.471C6.18699 21.065 5.15099 20.181 4.44899 19C3.35599 17.157 3.08099 14.594 3.01799 12.008ZM6.31799 16.945V14.397L8.79199 15.002C9.22357 15.0977 9.65813 15.1794 10.095 15.247C10.848 15.363 11.633 15.447 12.423 15.482C13.442 15.529 14.324 15.465 16.059 15.258C17.722 15.059 19.207 14.062 19.295 13.608C19.377 13.186 19.446 12.686 19.501 12.126C19.5717 11.3794 19.6174 10.6307 19.638 9.881C19.653 9.371 19.658 8.936 19.655 8.625V8.566C19.655 7.136 19.286 6.128 18.692 5.408C18.5226 5.20012 18.3262 5.01582 18.108 4.86C18.018 4.796 17.973 4.771 17.978 4.773C16.965 4.308 14.885 4.021 12.361 4H12.315C9.77499 4.02 7.69499 4.308 6.66499 4.782C6.68799 4.772 6.64399 4.796 6.55299 4.86C6.33477 5.01582 6.13836 5.20012 5.96899 5.408C5.37499 6.128 5.00599 7.137 5.00599 8.566C5.00599 8.798 5.00599 8.963 5.00299 9.441C4.99402 10.2804 4.99868 11.1198 5.01699 11.959C5.07099 14.156 5.28099 15.794 5.71699 17C5.92899 17.587 6.18899 18.07 6.49699 18.45C6.37026 17.9586 6.30972 17.4524 6.31699 16.945H6.31799ZM8.08399 6.37C8.38726 6.37 8.67812 6.49048 8.89257 6.70492C9.10701 6.91937 9.22749 7.21023 9.22749 7.5135C9.22749 7.81678 9.10701 8.10763 8.89257 8.32208C8.67812 8.53652 8.38726 8.657 8.08399 8.657C7.78071 8.657 7.48986 8.53652 7.27541 8.32208C7.06097 8.10763 6.94049 7.81678 6.94049 7.5135C6.94049 7.21023 7.06097 6.91937 7.27541 6.70492C7.48986 6.49048 7.78071 6.37 8.08399 6.37Z"/></g></g><defs><clipPath id="a"><rect width="24" height="24" fill="white"/></clipPath></defs></svg>

<svg width="24" height="24" fill="none" xmlns="http://www.w3.org/2000/svg"><g clip-path="url(#a)"><path d="M3.018 12.008c-.032-1.26-.012-2.448-.012-3.442 0-4.338 2.843-5.61 2.843-5.61 1.433-.658 3.892-.935 6.45-.956h.062c2.557.02 5.018.298 6.451.956 0 0 2.843 1.272 2.843 5.61 0 0 .036 3.201-.396 5.424-.275 1.41-2.457 2.955-4.963 3.254-1.306.156-2.593.3-3.965.236-2.243-.103-4.014-.535-4.014-.535 0 .218.014.426.04.62.084.633.299 1.095.605 1.435.766.85 2.106.93 3.395.974 1.82.063 3.44-.449 3.44-.449l.076 1.646s-1.274.684-3.542.81c-1.25.068-2.803-.032-4.612-.51-1.532-.406-2.568-1.29-3.27-2.471-1.093-1.843-1.368-4.406-1.431-6.992Zm3.3 4.937v-2.548l2.474.605a21.66 21.66 0 0 0 3.631.48c1.019.047 1.901-.017 3.636-.224 1.663-.199 3.148-1.196 3.236-1.65.082-.422.151-.922.206-1.482.07-.747.116-1.495.137-2.245.015-.51.02-.945.017-1.256v-.059c0-1.43-.369-2.438-.963-3.158a3.01 3.01 0 0 0-.584-.548c-.09-.064-.135-.089-.13-.087-1.013-.465-3.093-.752-5.617-.773h-.046c-2.54.02-4.62.308-5.65.782.023-.01-.021.014-.112.078-.218.156-.415.34-.584.548-.594.72-.963 1.729-.963 3.158 0 .232 0 .397-.003.875-.009.84-.004 1.679.014 2.518.054 2.197.264 3.835.7 5.041.212.587.472 1.07.78 1.45a5.7 5.7 0 0 1-.18-1.505h.001ZM8.084 6.37a1.144 1.144 0 1 1 0 2.287 1.144 1.144 0 0 1 0-2.287Z" /></g><defs><clipPath id="a"><path fill="#fff" d="M0 0h24v24H0z"/></clipPath></defs></svg>
